X:0276
T:Quick Step 23d. Regt.
M:6/8
L:1/8
Q:3/8=86
I: || ::
Z:Jack Campin * www.campin.me.uk * 2009
K:G
d|gag fef|g3  d3 |e2c  B2c |BAB G2d|
  gag fef|g3  a3 |fed  ed^c|d3  d2||
d|dBd dBd|e2c e2c|e^ce ece |f2d f2d|
  gag fef|g3  d2c|BAG  AGF |G3  G2:|

